www/assets/icons/1k.svg

<svg xmlns="http://www.w3.org/2000/svg" width="24" height="24" viewBox="0 0 24 24" fill='currentColor'><path d="M19 3H5c-1.1 0-2 .9-2 2v14c0 1.1.9 2 2 2h14c1.1 0 2-.9 2-2V5c0-1.1-.9-2-2-2m-8.5 12H9v-4.5H7.5V9h3zm7 0h-1.75L14 12.75V15h-1.5V9H14v2.25L15.75 9h1.75l-2.25 3z"/></svg>

<svg width="24" height="24" viewBox="0 0 24 24" xmlns="http://www.w3.org/2000/svg" fill='currentColor'><path d="M19 3H5C3.9 3 3 3.9 3 5V19C3 20.1 3.9 21 5 21H19C20.1 21 21 20.1 21 19V5C21 3.9 20.1 3 19 3ZM10.5 15H9V10.5H7.5V9H10.5V15ZM17.5 15H15.75L14 12.75V15H12.5V9H14V11.25L15.75 9H17.5L15.25 12L17.5 15Z"/></svg>
